X:1
T:4. Es kommt ein Schiff, geladen
T:Hugo Distler
T:Johannes Tauler (ca. 1300 - 1361)
T:4.  A Ship Is Coming Es kommt ein Schiff geladen Advent
T:Bärenreiter
T:Bärenreiter
T:Bärenreiter
C:Hugo Distler
Z:Johannes Tauler
Z:(ca. 1300 - 1361)
Z:Bärenreiter
%%score [ 1 2 3 ]
L:1/8
Q:1/4=90
M:6/4
K:Emin
V:1 treble nm="Soprano 1"
V:2 treble nm="Soprano 2"
V:3 treble nm="Alto"
V:1
 z2 | z2 B2 B2 B2 G2 A2 | (B3 d e2) !breath!^d2 e4 |[M:5/4] =d2 B2 G4 A2 |[M:2/4] !breath!B2 G2 | %5
w: |1.  A ship is com- ing,|lad- * * en, 'tis|full of freight on|board. It|
w: |2.  The ship moves through the|cur- * * rent, its|car- go hold- ing|fast, its|
w: |3.  The an- chor grips the|sea _ _ floor, the|ship has reached its|port, the|
w: |4.  In Beth- le- hem this|dark _ _ night is|born a ti- ny|child, who|
w: |5.  And who this child em-|brac- * * es, with|joy ac- cepts His|grace, must|
w: |6.  And then must die be-|side _ _ Him and|in the spir- it|rise, e-|
[M:4/4] B2 d2 e2 e2 |[M:8/4] (d2 B3 de d2 B>AG A4) |[M:2/4] !breath!G2 A2 |[M:5/4] B2 A2 G2 F4 | %9
w: bears God’s Son, most|grac- * * * * * * * *|ious, sent|by the Fa- ther's|
w: sail is love un-|end- * * * * * * * *|ing, the|Ho- ly Ghost, its|
w: Word in Flesh ap-|pear- * * * * * * * *|ing, the|Son to us comes|
w: all for us has|giv- * * * * * * * *|en; we|praise the Un- de-|
w: first share in His|suf- * * * * * * * *|f'ring, the|pains that He did|
w: ter- nal life in-|her- * * * * * * * *|it, and|life with Him, the|
[M:6/4] E12- | E8 z2 x2 |] %11
w: word.|_|
w: mast.|_|
w: forth.|_|
w: filed.|_|
w: face.|_|
w: prize.|_|
V:2
 E2 | E4 E2 F4 F2 | (G2 A2 B2) !breath!B4 B2 |[M:5/4] A2 A2 E4 F2 |[M:2/4] !breath!G2 G2 | %5
w: 1.  A|ship is com- ing,|lad- * * en, 'tis|full of freight on|board. It|
w: 2.  The|ship moves through the|cur- * * rent, its|car- go hold- ing|fast, its|
w: 3.  The|an- chor grips the|sea _ _ floor, the|ship has reached its|port, the|
w: 4.  In|Beth- le- hem this|dark _ _ night is|born a ti- ny|child, who|
w: 5.  And|who this child em-|brac- * * es, with|joy ac- cepts His|grace, must|
w: 6.  And|then must die be-|side _ _ Him and|in the spir- it|rise, e-|
[M:4/4] F2 A2 B2 B2 |[M:8/4] (A2 F3 E FB FE F3 G A2) |[M:2/4] !breath!B2 F2 |[M:5/4] G2 F2 E4 ^D2 | %9
w: bears God’s Son, most|grac- * * * * * * * * *|ious, sent|by the Fa- ther's|
w: sail is love un-|end- * * * * * * * * *|ing, the|Ho- ly Ghost, its|
w: Word in Flesh ap-|pear- * * * * * * * * *|ing, the|Son to us comes|
w: all for us has|giv- * * * * * * * * *|en; we|praise the Un- de-|
w: first share in His|suf- * * * * * * * * *|f'ring, the|pains that He did|
w: ter- nal life in-|her- * * * * * * * * *|it, and|life with Him, the|
[M:6/4] (E3 FABdB A4 | B8) z2 x2 |] %11
w: word. _ _ _ _ _ _|_|
w: mast. _ _ _ _ _ _|_|
w: forth. _ _ _ _ _ _|_|
w: filed. _ _ _ _ _ _|_|
w: face. _ _ _ _ _ _|_|
w: prize. _ _ _ _ _ _|_|
V:3
 z2 | z2 E2 D2 C2 E4 | E2 E4 !breath!B,2 G4 |[M:5/4] E2 D2 (C3 B,) A,2 |[M:2/4] E4- | %5
w: |1.  A ship is com-|ing, lad- en, 'tis|full of freight _ on|board.|
w: |2.  The ship moves through|the cur- rent, its|car- go hold- * ing|fast,|
w: |3.  The an- chor grips|the sea floor, the|ship has reached _ its|port,|
w: |4.  In Beth- le- hem|this dark night is|born a ti- * ny|child,|
w: |5.  And who this child|em- brac- es, with|joy ac- cepts _ His|grace,|
w: |6.  And then must die|be- side Him and|in the spir- * it|rise,|
[M:4/4] E4 z2 G,2 |[M:8/4] B,2 D2 E4- E2 E2 C4 |[M:2/4] !breath![G,D]2 D2 |[M:5/4] B,2 D2 E2 B,4 | %9
w: _ It|bears God’s Son, _ most grac-|ious, sent|by the Fa- ther's|
w: _ its|sail is love _ un- end-|ing, the|Ho- ly Ghost, its|
w: _ the|Word in Flesh _ ap- pear-|ing, the|Son to us comes|
w: _ who|all for us _ has giv-|en; we|praise the Un- de-|
w: _ must|first share in _ His suf-|f'ring, the|pains that He did|
w: _ e-|ter- nal life _ in- her-|it, and|life with Him, the|
[M:6/4] (E3 CEFAF- FE F2 | ^G8) z2 x2 |] %11
w: word. _ _ _ _ _ _ _ _|_|
w: mast. _ _ _ _ _ _ _ _|_|
w: forth. _ _ _ _ _ _ _ _|_|
w: filed. _ _ _ _ _ _ _ _|_|
w: face. _ _ _ _ _ _ _ _|_|
w: prize. _ _ _ _ _ _ _ _|_|

